X:1
T:[ID 5-37]
T:[ID 5-37]
T:Bezeichnung standardisiert: Menuett Menuet
T:Urheber unbekannt Datum in der hier transkribierten schriftlichen Quelle: 1773
C:Urheber unbekannt
C:Datum in der hier transkribierten schriftlichen Quelle: 1773
L:1/8
M:3/4
K:D
V:1 treble 
V:1
 d2 AGFE | D2 f4 | g2 edcB | A2 g4 | (f^g)(ag)(af) | e2 d2 c2 | (3Bcd E2"^[sic]" G2 |{G} A6 :: %8
 a2 f2 ^d2 | Ba a2 gf | g2 e2 c2 | Ag g2 fe | fdBcde |{d} c2 BA d2 | (3BAG F2 E2 |{E} D6 :| %16

